X:1
T:Sleep! Holy Babe
T:Sleep! Holy Babe
T:John Bacchus Dykes
T:Edward Caswall, 1850
T:Public Domain Courtesy of the Cyber Hymnal™
T:Public Domain Courtesy of the Cyber Hymnal™
C:John Bacchus Dykes
Z:Public Domain
Z:Courtesy of the Cyber Hymnal™
%%score ( 1 2 ) ( 3 4 )
L:1/8
Q:1/4=130
M:none
K:Eb
V:1 treble 
V:2 treble 
V:3 bass 
V:4 bass 
V:1
 (E2 G2 B2 c2 c4 F4) | (D2 F2 A2 B2 B4 E4) | z6 ([C_DA]2 [CDA]2 [DGB]2 [=EA]2 [A,_CE]2 | %3
w: ~ * * * * *|~ * * * * *|~ * * * *|
w: ~ * * * * *|~ * * * * *|~ * * * *|
w: ~ * * * * *|~ * * * * *|~ * * * *|
w: ~ * * * * *|~ * * * * *|~ * * * *|
 [G,B,E]2) z6 z8 | (E4 D4) z8 || [B,E]8 [CE]6 [EA]2 | G12 (z4 e4) | [Ae]4 (d2 c2) B6 (z2 A2) | %8
w: |~ *|1.~Sleep! Ho- ly|Babe! *|up- on * Thy *|
w: |~ *|2.~Sleep! Ho- ly|Babe! *|Thine an- * gels *|
w: |~ *|3.~Sleep! Ho- ly|Babe! *|while I * with *|
w: |~ *|4.~Sleep! Ho- ly|Babe! *|ah! take * Thy *|
 [FG]12 | [FG]4 | [FG]6 [FG]2 [F=A]4 [F=B]4 | [Fd]6 [FG]2 [FG]4 [FG]4 | %12
w: |mo-|ther’s breast; Great Lord|of earth and sea|
w: |watch|a- round, All bend-|ing low with fold-|
w: |Ma-|ry gaze In joy|up- on that face|
w: |brief|re- pose; Too quick-|ly will Thy slum-|
 G4 (z2 [Ge]4) ([Fd]2 [Ec]2) x2 | [Ec]6 [DB]2 [DB]4 | [DB]4 | B6 [CE]2 [DE]4 E4 | E12 | E4 | %18
w: and * sky, *|How sweet it|is|to see Thee lie|In|such|
w: ed * wings, *|Be- fore th’in-|car-|nate King of kings,|In|rever-|
w: a- * while, *|Up- on the|lov-|ing in- fant smile|Which|there|
w: bers * break, *|And Thou to|length-|ened pains a- wake|That|death|
 (E2 G2) (B2 c2) B6 [B,D]2 | E8- [B,E]8 [B,_DE]4 | [A,CE]8 [A,_CE]8 | [G,B,E]8 z8 |] %22
w: a * place * of rest,|In such a|* place|of|
w: ent * awe * pro- found.|In rever- ent|* awe|pro-|
w: di- * vine- * ly plays.|Which there di-|* vine-|ly|
w: a- * lone * shall close,|That death a-|* lone|shall|
V:2
 x8 E8 | x8 _D8 | x16 | x16 | A,8 x8 || x16 | E8 G8 x4 | x4 A4 G4 F4 x2 | x12 | x4 | x16 | x16 | %12
 E6 (e4 G2) x4 | x12 | x4 | (E2 B,4) x4 (C2 B,2) x2 | (C8 E4) | (D2 C2) | B,4 E4 (E2 D2 C2) x2 | %19
 B,2 E2 _D2 C2 x12 | x16 | x16 |] %22
V:3
 z8 [F,,=A,]8 | z8 [E,,G,]8 | (A,,2 C,2 E,2 F,2 F,2 G,2 A,2 A,,2 | [B,,E,]2 G,2 B,2 C6 B,4- | %4
 [B,,B,-]8 B,8) || [E,G,]8 [E,A,]6 [E,C]2 | B,12 (z4 =B,4) | [A,,C]4 (D2 E2) [B,,E]4 [B,D]4 x2 | %8
 [=B,D]12 | [=B,D]4 | [G,=B,]6 [G,B,]2 [G,C]4 [G,,D]4 | [G,,=B,]6 [G,,B,]2 [=A,,C]4 [=B,,D]4 | %12
 (C2 D2) (C2 B,2) (=A,2 F,3) (z [F,A,]2) | [F,=A,]6 [B,,B,]2 [B,,B,]4 | (D2 C2) | %15
 [G,,B,]6 [G,,B,]2 [G,,B,]4 [G,,E,]4 | [A,,E,]12 | (F,2 ^F,2) | %18
 [B,,G,]4 [B,,G,]4 [B,,A,]4 [B,,A,]4 | (G,2 C2 B,2 A,2 [E,G,]8) E,,4 | %20
 (A,,2 C,2 E,2 F,2) (F,4 E,4) | [E,,E,]8 z8 |] %22
V:4
 x16 | x16 | x16 | x16 | x16 || x16 | E,8 E,8 x4 | x4 A,,4 x10 | x12 | x4 | x16 | x16 | %12
 C,4 C,4 F,4 G,2 x2 | x12 | A,,4 | x16 | x12 | =A,,4 | x16 | E,8 x12 | x8 A,,8 | x16 |] %22

